icons/camcorder.svg

<svg width="24" height="24" viewBox="0 0 24 24" fill="none" xmlns="http://www.w3.org/2000/svg">
<path fill-rule="evenodd" clip-rule="evenodd" d="M1 5C1 4.44772 1.44772 4 2 4H16C16.5523 4 17 4.44772 17 5V9.13148L21.4453 6.16795C21.7522 5.96338 22.1467 5.94431 22.4719 6.11833C22.797 6.29234 23 6.6312 23 7V17C23 17.3688 22.797 17.7077 22.4719 17.8817C22.1467 18.0557 21.7522 18.0366 21.4453 17.8321L17 14.8685V19C17 19.5523 16.5523 20 16 20H2C1.44772 20 1 19.5523 1 19V5ZM17 12.4648L21 15.1315V8.86852L17 11.5352V12.4648ZM3 6V18H15V6H3ZM5 9C5 8.44772 5.44772 8 6 8H6.00945C6.56174 8 7.00945 8.44772 7.00945 9C7.00945 9.55228 6.56174 10 6.00945 10H6C5.44772 10 5 9.55228 5 9Z" fill="black"/>
</svg>

<svg
  width="24"
  height="24"
  viewBox="0 0 24 24"
  xmlns="http://www.w3.org/2000/svg"
>
  <path
    fill-rule="evenodd"
    clip-rule="evenodd"
    d="M1 5a1 1 0 0 1 1-1h14a1 1 0 0 1 1 1v4.131l4.445-2.963A1 1 0 0 1 23 7v10a1 1 0 0 1-1.555.832L17 14.868V19a1 1 0 0 1-1 1H2a1 1 0 0 1-1-1V5zm16 7.465l4 2.667V8.869l-4 2.666v.93zM3 6v12h12V6H3zm2 3a1 1 0 0 1 1-1h.01a1 1 0 1 1 0 2H6a1 1 0 0 1-1-1z"
  />
</svg>
